svg/u1f1e6.svg

<svg viewBox="0 0 128 128" xmlns="http://www.w3.org/2000/svg">
  <path d="m115.37 117.77-37.59-99.96c-0.33-0.87-1.16-1.45-2.1-1.45h-23.36c-0.94 0-1.77 0.58-2.1 1.45l-37.59 99.96c-0.26 0.69-0.17 1.46 0.25 2.06s1.1 0.97 1.84 0.97h24.64c0.96 0 1.82-0.62 2.13-1.54l5.7-17.18h33.61l5.71 17.18c0.3 0.92 1.16 1.54 2.13 1.54h24.64c0.73 0 1.42-0.36 1.84-0.97 0.41-0.6 0.51-1.37 0.25-2.06zm-61.14-36.9 9.77-29.42 9.77 29.43h-19.54z" fill="#40C0E7"/>
</svg>

<svg viewBox="0 0 128 128" xmlns="http://www.w3.org/2000/svg">
  <defs/>
  <path d="M115.37,117.77 L77.78,17.81 C77.45,16.94 76.62,16.36 75.68,16.36 L52.32,16.36 C51.38,16.36 50.55,16.94 50.22,17.81 L12.63,117.77 C12.37,118.46 12.46,119.23 12.88,119.83 C13.3,120.43 13.98,120.8 14.72,120.8 L39.36,120.8 C40.32,120.8 41.18,120.18 41.49,119.26 L47.19,102.08 L80.8,102.08 L86.51,119.26 C86.81,120.18 87.67,120.8 88.64,120.8 L113.28,120.8 C114.01,120.8 114.7,120.44 115.12,119.83 C115.53,119.23 115.63,118.46 115.37,117.77 Z M54.23,80.87 L64,51.45 L73.77,80.88 L54.23,80.88 Z" fill="#40C0E7"/>
</svg>
